li/brand-html5-connectivity.svg

<svg role="img" focusable="false" aria-hidden="true" xmlns="http://www.w3.org/2000/svg" viewBox="0 0 14 14" height="1em" width="1em">
  <path d="m 10.020473,9.2783945 1.489498,0 0,-3.576708 -1.678277,-1.678277 -1.053444,1.053443 1.241692,1.242223 0,2.959319 z m 1.49322,0.7466105 -5.195958,0 -1.2416914,-1.2422235 0.5264557,-0.526455 1.0257907,1.025791 2.110609,0 -2.079234,-2.082957 0.53071,-0.53071 2.079234,2.079234 0,-2.110609 -1.022068,-1.022068 0.522733,-0.522734 -2.5822921,-2.593991 -5.1879819,0 1.4857751,1.485776 0,0.0037 3.0816272,0 1.0885407,1.08854 -1.5915984,1.591598 -1.0885403,-1.08854 0,-0.844988 -1.4894975,0 0,1.461845 2.5780378,2.578038 -1.0491891,1.049189 1.6782771,1.6782775 7.3065674,0 -1.485775,-1.477798 z"/>
</svg>

<svg aria-hidden="true" xmlns="http://www.w3.org/2000/svg" viewBox="0 0 14 14" height="1em" width="1em">
  <path d="M10.02 9.278h1.49V5.702L9.832 4.023 8.778 5.077l1.242 1.242v2.96zm1.494.747H6.318L5.076 8.783l.526-.527 1.026 1.026h2.11L6.66 7.2l.53-.53 2.08 2.079v-2.11L8.248 5.614l.522-.523-2.582-2.594H1l1.486 1.486v.004h3.081l1.089 1.088-1.592 1.592-1.088-1.089v-.845h-1.49v1.462l2.578 2.578-1.049 1.05 1.678 1.678H13l-1.486-1.478z"/>
</svg>
